public/assets/images/icons/blue/visibility-visible/sport.svg

<svg width="16" height="16" xmlns="http://www.w3.org/2000/svg" viewBox="0 0 16 16" shape-rendering="geometricPrecision" fill="#24437c"><defs><mask id="a"><rect fill="#fff" width="100%" height="100%"/><path d="M12.997.858a4.809 4.809 0 0 0-4.253 2.563 4.81 4.81 0 0 0 8.506 0A4.812 4.812 0 0 0 12.997.858z" fill="#000"/></mask></defs><path d="M12.971 1.607c-1.315 0-2.454.74-3.029 1.825a3.425 3.425 0 0 0 6.058 0 3.43 3.43 0 0 0-3.029-1.825z" fill="#cb1800"/><g mask="url(#a)"><path d="M14.9 9.115c-.443-1.083-.024-2.207-.592-2.207-.113 0-.265.044-.47.142-1.239.59-1.475.708-1.475.708s-2.065-.59-2.36-1.18c-.197-.396-.449-1.005-.914-1.005-.228 0-.506.146-.855.533-1.062 1.18-4.012 1.829-5.487 2.419-1.475.59-1.922 1.664-1.652 2.36.413 1.062 1.71 1.074 1.71 1.074h11.859s.572-2.023.236-2.844zM8.967 6.877l.027.055.059.121c.28.561 1.046 1.059 2.268 1.486L9.448 9.577 7.997 7.631c.372-.224.703-.472.97-.754zm.141 4.02h-.999L6.369 8.4c.228-.088.452-.18.67-.277l2.069 2.774zm-7.023-.396c-.035-.111.132-.62 1.056-.99.362-.145.853-.304 1.373-.472.269-.087.543-.176.819-.269l1.482 2.127H2.823c-.062-.004-.602-.046-.738-.396zm11.737.396h-3.389l-.344-.461 3.562-1.973c.041.325.114.681.265 1.05.067.197.022.767-.094 1.384z"/></g></svg>

<?xml version="1.0"?><!DOCTYPE svg PUBLIC "-//W3C//DTD SVG 1.1//EN" "http://www.w3.org/Graphics/SVG/1.1/DTD/svg11.dtd"><svg width="16px" height="16px" xmlns="http://www.w3.org/2000/svg" viewBox="0 0 16 16" shape-rendering="geometricPrecision" fill="#24437c"><defs><mask id="visibility-visible-path"><rect fill="#fff" width="100%" height="100%"/><path d="M12.997,0.858c-1.845,0-3.446,1.039-4.253,2.563c0.808,1.523,2.408,2.562,4.253,2.562 c1.844,0,3.444-1.039,4.253-2.562C16.441,1.897,14.841,0.858,12.997,0.858z" fill="#000"/></mask></defs><path display="inline" d="M12.971,1.607c-1.315,0-2.454,0.74-3.029,1.825 c0.575,1.085,1.715,1.825,3.029,1.825c1.314,0,2.453-0.74,3.029-1.825C15.424,2.348,14.284,1.607,12.971,1.607z" fill="#cb1800"/><g mask="url(#visibility-visible-path)"><path d="M14.9,9.115c-0.443-1.083-0.024-2.207-0.592-2.207c-0.113,0-0.265,0.044-0.47,0.142 c-1.239,0.59-1.475,0.708-1.475,0.708s-2.065-0.59-2.36-1.18C9.806,6.182,9.554,5.573,9.089,5.573 c-0.228,0-0.506,0.146-0.855,0.533c-1.062,1.18-4.012,1.829-5.487,2.419c-1.475,0.59-1.922,1.664-1.652,2.36 c0.413,1.062,1.71,1.074,1.71,1.074h11.859C14.664,11.959,15.236,9.936,14.9,9.115z M8.967,6.877 c0.01,0.02,0.019,0.039,0.027,0.055l0.059,0.121c0.28,0.561,1.046,1.059,2.268,1.486L9.448,9.577L7.997,7.631 C8.369,7.407,8.7,7.159,8.967,6.877z M9.108,10.897H8.109L6.369,8.4c0.228-0.088,0.452-0.18,0.67-0.277L9.108,10.897z M2.085,10.501c-0.035-0.111,0.132-0.62,1.056-0.99c0.362-0.145,0.853-0.304,1.373-0.472C4.783,8.952,5.057,8.863,5.333,8.77 l1.482,2.127H2.823C2.761,10.893,2.221,10.851,2.085,10.501z M13.822,10.897h-3.389l-0.344-0.461l3.562-1.973 c0.041,0.325,0.114,0.681,0.265,1.05C13.983,9.71,13.938,10.28,13.822,10.897z"/></g></svg>
